X:1
T:SILVER FOX
T:SILVER FOX
T:A Raggy Fox Trot
T:By HENRY LODGE
T:Copyright 1915 by JEROME H. REMICK &amp; CO.,
T:Copyright 1915 by JEROME H. REMICK &amp; CO.,
T:Copyright 1915 by JEROME H. REMICK &amp; CO.,
T:Copyright 1915 by JEROME H. REMICK &amp; CO.,
C:By HENRY LODGE
Z:Copyright 1915 by JEROME H. REMICK & CO.,
%%score { ( 1 3 ) | 2 }
L:1/8
Q:1/4=180
M:4/4
K:G
V:1 treble nm="Piano" snm="Pno."
V:3 treble 
V:2 bass 
V:1
"^Moderato"!f! d<ed/ | [Fce]4- [Fce]>d[Fce]>d | [Fce] d2 [FA]- [FA]>d[Fce]>d | (e2 a2) (_e2 a2) | %4
 [ce]4 !^![dfad'] z/ d<ed/ |:!mf! [Fce]4- [Fce]>d[Fce]>d | [Fce] d2 [FA]- [FA]>d[F^Ae]>d | %7
 [GBe]4- [GBe]>d[GBe]>d | [GBe] d2 G- G>^cd>e | [F=cf]2 [Fcf]2 [Fcf]2 [Fcf]2 | %10
 [Fcf] [Aca]2 [Fcf]- [Fcf]3 ^d | [GBe]>^d[GBe]>d [GBe]>d[GBe]>d | %12
 [GBe] [GBg]2 [GBe]- [GBe]>d[GBe]>d | [Fce]4- [Fce]>d[Fce]>d | [Fce] d2 [FA]- [FA]>d[F^Ae]>d | %15
 [GBe]4- [GBe]>d[GBe]>d | [GBe] d2 [GBg]- [GBg]>ef>g |!f! !^![Aca]4- [Aca]>ab>g | %18
 [cea]bg[cea]- [cea]>ge>d | !^![GBe]4- [GBe]>ef>d | [GBe]fd[GBe]- [GBe]>dB>d | %21
[K:G] [Fce]4- [Fce]>d[Fce]>d | [Fce] [Fcd]2 [FA]- [FA]>Bc>d | [Fce]2 [Fcd]2 [Fce] [Fcd]3 |1 %24
 [GBg]4- [GBg]>de>d :|2 [GBg]4- [GBg]>Bc>d ||!f! [EGce]2 [EGce]2 [E^Gde]2 [EGde]2 | %27
 [Ece]>[^D^d][Ece]>[Ff] [G^cg] [Ece]3 | [DG=d]2 [DGd]2 [DF=cd]2 [DFcd]2 | [DGBd]>^c[DBd]>e =f d3 | %30
 [=GB]2 [GB]>A [GB]2 [GB]>A | [FB]>A[FB]>=c [Fd] [FB]2 [FA] | G2 (3A^AB G2 (3=A^AB | %33
 G>G=A>B G>Bc>d | [EGce]2 [EGce]2 [E^Gde]2 [EGde]2 | [Ece]>[^D^d][Ece]>[Ff] [G^cg] [Ece]3 | %36
 [DG=d]2 [DGd]2 [DF=cd]2 [DFcd]2 | [DGBd]>^c[DBd]>e =f d3 | [=GB]2 [GB]>A [GB]2 [GB]>A | %39
 [FB]>A[FB]>=c [Fd] [FB]2 [FA] | G2 (3^cd^d e>fe>=d | [GBg]4- [GBg]>de>d | %42
!mf! [Fce]4- [Fce]>d[Fce]>d | [Fce] d2 [FA]- [FA]>d[F^Ae]>d | [GBe]4- [GBe]>d[GBe]>d | %45
 [GBe] d2 G- G>^cd>e | [F=cf]2 [Fcf]2 [Fcf]2 [Fcf]2 | [Fcf] [Aca]2 [Fcf]- [Fcf]3 ^d | %48
 [GBe]>^d[GBe]>d [GBe]>d[GBe]>d | [GBe] [GBg]2 [GBe]- [GBe]>d[GBe]>d | [Fce]4- [Fce]>d[Fce]>d | %51
 [Fce] d2 [FA]- [FA]>d[F^Ae]>d | [GBe]4- [GBe]>d[GBe]>d | [GBe] d2 [GBg]- [GBg]>ef>g | %54
!f! !^![Aca]4- [Aca]>ab>g | [cea]bg[cea]- [cea]>ge>d |!f! !^![GBe]4- [GBe]>ef>d | %57
 [GBe]fd[GBe]- [GBe]>dB>d | [Fce]4- [Fce]>d[Fce]>d | [Fce] [Fcd]2 [FA]- [FA]>Bc>d | %60
 [Fce]2 [Fcd]2 [Fce] [Fcd]3 | [GBg]4- [GBg] z/ ||[K:C]"^TRIO"!mf! G<cd/ | %63
 [EGe]2 [EGe]2 !^![E_Ae]2 !^![EAe]2 | [Ge]>d[Gc]>d e g3 | [FAdf]2 [FAdf]2 !^![F_Bdf]2 !^![FBdf]2 | %66
 [Af]>e[Ad]>e f a3 | b>c'b>a g>ag>e | [GBg] [GBe]2 [GBd]- [GBd]3 ^d | e>ge>=d c>dc>B | %70
 A>Bc>^c d>BA>G | [EGe]2 [EGe]2 !^![E_Ae]2 !^![EAe]2 | [Ge]>d[Gc]>d e g3 | %73
 [FAdf]2 [FAdf]2 !^![F_Bdf]2 !^![FBdf]2 | [Af]>e[Ad]>e f a3 | b>c'b>a g>ag>e | %76
 [GBg] [GBe]2 [GBd]- [GBd]2 (3efg | [Bfa]>g[Bfa]>g [Bfa] [Bfg]3 | %78
 [cec']2 (3[Gg][Gg][Gg] [Gg] z/ g<ag/ ||!ff! [Bfa]4- [Bfa]>g[Bfa]>g | %80
 [Bfa] [Bfg]2 [Bd]- [Bd]>g[B^da]>g | [cea]4- [cea]>g[cea]>g | [cea] [ceg]2 c- c>[^F^f][Gg]>[Aa] | %83
 [B=fb]2 [Bfb]2 [Bfb]2 [Bfb]2 | [Bfb] [dfd']2 [Bfb]- [Bfb]3 ^g | [cea]>^g[cea]>g [cea]>g[cea]>g | %86
 [cea] [cec']2 [cea]- [cea]>g[cea]>g | [Bfa]4- [Bfa]>g[Bfa]>g | [Bfa] [Bfg]2 [Bd]- [Bd]>g[B^da]>g | %89
 [cea]4- [cea]>g[cea]>g | [cea] [ceg]2 [cec']- [cec']>ab>c' | [dfd']4- [dfd']>d'e'>c' | %92
 [fad']e'c'[fad']- [fad']>c'a>g | [Aea]4- [Aea]>ab>g | [cea]bg[cea]- [cea]>ge>g | %95
 [Bfa]4- [Bfa]>g[Bfa]>g | [Bfa] [Bfg]2 [Bd]- [Bd]>ef>g | [Bfa]>g[Bfa]>g [Bfa] [Bfg]3 | %98
 [cec']2 [FBdg]2 !^![cegc'] z z2 |] %99
V:2
 z/ z2 | [A,,A,]2 [D,F,C]2 [D,,D,]2 [D,F,C]2 | [A,,A,]2 [D,F,C]2 [D,,D,]2 [D,F,C]2 | [DG]4 [DG]4 | %4
 [DF]2 A,2 !^![D,,D,] z z2 |: [A,,A,]2 [F,CD]2 [D,,D,]2 [F,CD]2 | %6
 [A,,A,]2 [F,CD]2 [D,,D,]2 [F,CD]2 | [G,,G,]2 [G,B,D]2 [D,,D,]2 [G,B,D]2 | %8
 [G,,G,]2 [G,B,D]2 [B,,B,]2 [_B,,_B,]2 | [A,,A,]2 [F,CD]2 [D,,D,]2 [F,CD]2 | %10
 [A,,A,]2 [F,CD]2 [D,,D,]2 [F,CD]2 | [G,,G,]2 [G,B,D]2 [D,,D,]2 [G,B,D]2 | %12
 [G,,G,]2 [G,B,D]2 [D,,D,]2 [G,B,D]2 | [A,,A,]2 [F,CD]2 [D,,D,]2 [F,CD]2 | %14
 [A,,A,]2 [F,CD]2 [D,,D,]2 [F,CD]2 | [G,,G,]2 [G,B,D]2 [D,,D,]2 [G,B,D]2 | %16
 [G,,G,]2 [G,B,D]2 [D,,D,]2 [G,B,D]2 | [C,,C,]2 [A,CE]2 A,,2 [A,CE]2 | %18
 [C,,C,]2 [A,CE]2 A,,2 [A,CE]2 | [D,,D,]2 [G,B,D]2 [B,,,B,,]2 [G,B,D]2 | %20
 [D,,D,]2 [G,B,D]2 [B,,,B,,]2 [G,B,D]2 |[K:G] A,,2 [D,F,C]2 [D,,D,]2 [D,F,C]2 | %22
 A,,2 [D,F,C]2 [D,,D,]2 [D,F,C]2 | A,,2 [D,F,C]2 [D,,D,]2 [D,F,C]2 |1 [G,,G,]2 D,2 [G,,G,]2 z2 :|2 %25
 [G,,G,]2 [D,,D,]2 [G,,,G,,]2 z2 || [C,C]2 [C,C]2 [B,,B,]2 [B,,B,]2 | %27
 [A,,A,]2 [E,A,C]2 [^A,,^A,]2 [A,^C]2 | [B,,B,]2 [B,,B,]2 [=A,,=A,]2 [A,,A,]2 | %29
 [G,,G,]2 [G,B,D]2 [E,,E,]2 [E,^G,D]2 | A,,2 [=G,A,^C]2 A,,2 [G,A,C]2 | %31
 [D,,D,]2 [D,F,=C]2 [D,,D,]2 [D,F,C]2 | [G,B,D]2 !^![G,C_E]2 [G,B,D]2 !^![G,CE]2 | %33
 [G,B,D]2 [G,C_E]2 [G,B,D]2 z2 | [C,C]2 [C,C]2 [B,,B,]2 [B,,B,]2 | %35
 [A,,A,]2 [E,A,C]2 [^A,,^A,]2 [A,^C]2 | [B,,B,]2 [B,,B,]2 [=A,,=A,]2 [A,,A,]2 | %37
 [G,,G,]2 [G,B,D]2 [E,,E,]2 [E,^G,D]2 | A,,2 [=G,A,^C]2 A,,2 [G,A,C]2 | %39
 [D,,D,]2 [D,F,=C]2 [D,,D,]2 [D,F,C]2 | [G,B,]2 z2 [D,F,A,!courtesy!=C]2 [D,F,A,C]2 | %41
 [G,,G,]2 D,2 [G,,G,]2 z2 | [A,,A,]2 [F,CD]2 [D,,D,]2 [F,CD]2 | [A,,A,]2 [F,CD]2 [D,,D,]2 [F,CD]2 | %44
 [G,,G,]2 [G,B,D]2 [D,,D,]2 [G,B,D]2 | [G,,G,]2 [G,B,D]2 [B,,B,]2 [_B,,_B,]2 | %46
 [A,,A,]2 [F,CD]2 [D,,D,]2 [F,CD]2 | [A,,A,]2 [F,CD]2 [D,,D,]2 [F,CD]2 | %48
 [G,,G,]2 [G,B,D]2 [D,,D,]2 [G,B,D]2 | [G,,G,]2 [G,B,D]2 [D,,D,]2 [G,B,D]2 | %50
 [A,,A,]2 [F,CD]2 [D,,D,]2 [F,CD]2 | [A,,A,]2 [F,CD]2 [D,,D,]2 [F,CD]2 | %52
 [G,,G,]2 [G,B,D]2 [D,,D,]2 [G,B,D]2 | [G,,G,]2 [G,B,D]2 [D,,D,]2 [G,B,D]2 | %54
 [C,,C,]2 [A,CE]2 A,,2 [A,CE]2 | [C,,C,]2 [A,CE]2 A,,2 [A,CE]2 | %56
 [D,,D,]2 [G,B,D]2 [B,,,B,,]2 [G,B,D]2 | [D,,D,]2 [G,B,D]2 [B,,,B,,]2 [G,B,D]2 | %58
 A,,2 [D,F,C]2 [D,,D,]2 [D,F,C]2 | A,,2 [D,F,C]2 [D,,D,]2 [D,F,C]2 | %60
 A,,2 [D,F,C]2 [D,,D,]2 [D,F,C]2 | [G,,G,]2 [D,,D,]2 [G,,,G,,] z/ ||[K:C] z/ z2 | %63
 [C,G,]2 [C,G,]2 !^![C,_A,]2 !^![C,A,]2 | [C,,C,]2 [G,CE]2 A,,2 [G,A,^C]2 | %65
 [D,A,]2 [D,A,]2 !^![D,_B,]2 !^![D,B,]2 | [D,,D,]2 [A,DF]2 A,,2 [A,DF]2 | %67
 [D,,D,]2 [G,B,F]2 G,,2 [G,B,F]2 | [D,,D,]2 [G,B,F]2 G,,2 [G,B,F]2 | %69
 [C,,C,]2 [G,CE]2 A,,2 [A,CE]2 | [D,,D,]2 [D,A,C]2 [G,,G,]2 [G,B,]2 | %71
 [C,G,]2 [C,G,]2 !^![C,_A,]2 !^![C,A,]2 | [C,,C,]2 [G,CE]2 A,,2 [G,A,^C]2 | %73
 [D,A,]2 [D,A,]2 !^![D,_B,]2 !^![D,B,]2 | [D,,D,]2 [A,DF]2 A,,2 [A,DF]2 | %75
 [D,,D,]2 [G,B,F]2 G,,2 [G,B,F]2 | [D,,D,]2 [G,B,F]2 G,,2 [G,B,F]2 | %77
 [D,,D,]2 [G,B,F]2 G,,2 [G,B,F]2 | [C,,C,]2 (3G,G,G, G, z z2 || [D,,D,]2 [G,B,F]2 G,,2 [G,B,F]2 | %80
 [D,,D,]2 [G,B,F]2 G,,2 [G,B,F]2 | [C,,C,]2 [G,CE]2 G,,2 [G,CE]2 | %82
 [C,,C,]2 [G,CE]2 [E,,E,]2 [_E,,_E,]2 | [D,,D,]2 [G,B,F]2 G,,2 [G,B,F]2 | %84
 [D,,D,]2 [G,B,F]2 G,,2 [G,B,F]2 | [C,,C,]2 [G,CE]2 G,,2 [G,CE]2 | [C,,C,]2 [G,CE]2 G,,2 [G,CE]2 | %87
 [D,,D,]2 [G,B,F]2 G,,2 [G,B,F]2 | [D,,D,]2 [G,B,F]2 G,,2 [G,B,F]2 | %89
 [C,,C,]2 [G,CE]2 G,,2 [G,CE]2 | [C,,C,]2 [G,CE]2 G,,2 [G,CE]2 | %91
 [F,,F,]2 [F,A,D]2 [D,,D,]2 [F,A,D]2 | [F,,F,]2 [F,A,D]2 [D,,D,]2 [F,A,D]2 | %93
 [G,,G,]2 [G,CE]2 [E,,E,]2 [G,CE]2 | [G,,G,]2 [G,CE]2 [E,,E,]2 [G,CE]2 | %95
 [D,,D,]2 [G,B,F]2 G,,2 [G,B,F]2 | [D,,D,]2 [G,B,F]2 G,,2 [G,B,F]2 | %97
 [D,,D,]2 [G,B,F]2 G,,2 [G,B,F]2 | [C,C]2 [G,,G,]2 !^![C,,C,] z z2 |] %99
V:3
 x5/2 | x8 | x8 | c4 c4 | x8 |: x8 | x8 | x8 | x8 | x8 | x8 | x8 | x8 | x8 | x8 | x8 | x8 | x8 | %18
 x8 | x8 | x8 |[K:G] x8 | x8 | x8 |1 x8 :|2 x8 || x8 | x8 | x8 | x4 ^G4 | x8 | x8 | x8 | x8 | x8 | %35
 x8 | x8 | x4 ^G4 | x8 | x8 | x8 | x8 | x8 | x8 | x8 | x8 | x8 | x8 | x8 | x8 | x8 | x8 | x8 | x8 | %54
 x8 | x8 | x8 | x8 | x8 | x8 | x8 | x11/2 ||[K:C] x5/2 | x8 | x4 [G^c]4 | x8 | x4 [Ad]4 | x8 | x8 | %69
 x8 | ^F2 F2 [=FB]2 F2 | x8 | x4 [G^c]4 | x8 | x4 [Ad]4 | x8 | x8 | x8 | x8 || x8 | x8 | x8 | x8 | %83
 x8 | x8 | x8 | x8 | x8 | x8 | x8 | x8 | x8 | x8 | x8 | x8 | x8 | x8 | x8 | x8 |] %99

